icon-themes/sifr_svg/cmd/sc_switchxformsdesignmode.svg

<svg viewBox="0 0 16 16" xmlns="http://www.w3.org/2000/svg"><g fill="#555753"><path d="m10 2-1 1 2 2 1-1c-.129005-1.3579461-.925643-1.8575071-2-2zm-2 2-7 7v2h2l7-7zm3 7v4h4v-4z"/><path d="m7 11v4h4v-4z" opacity=".35"/></g></svg>

<svg xmlns="http://www.w3.org/2000/svg" viewBox="0 0 16 16">
  <path
     style="fill:#555753"
     d="M 10 2 L 9 3 L 11 5 L 12 4 C 11.870995 2.6420539 11.074357 2.1424929 10 2 z M 8 4 L 1 11 L 1 13 L 3 13 L 10 6 L 8 4 z M 11 11 L 11 15 L 15 15 L 15 11 L 11 11 z "
     />
  <path
     style="opacity:0.35;fill:#555753"
     d="M 7 11 L 7 15 L 11 15 L 11 11 L 7 11 z "
     />
</svg>
